recipes/unraid/icon.svg

<svg height="1024" viewBox="0 0 1024 1024" width="1024" xmlns="http://www.w3.org/2000/svg" xmlns:xlink="http://www.w3.org/1999/xlink"><linearGradient id="a" x1="17.743628%" x2="82.213643%" y1="105.82987%" y2="-5.862338%"><stop offset="0" stop-color="#e32929"/><stop offset="1" stop-color="#ff8d30"/></linearGradient><g fill="none" transform="translate(0 155.5)"><path d="m675.453237 668.000138h-53.870503l-13.81295 41.438849h-29.928057l61.697841-177.266187h36.834533l61.697841 177.266187h-32.690647l-48.805755-145.496403-26.705036 77.81295h37.755395zm-538.705036-135.366906v116.94964c0 40.978417-26.705036 62.618705-68.6043161 62.618705-41.4388489 0-68.1438849-21.640288-68.1438849-62.618705v-116.94964h29.9280576v116.94964c0 23.942446 14.7338129 36.374101 37.7553956 36.374101 23.9424461 0 38.6762588-12.431655 38.6762588-36.374101v-116.94964zm97.611511 54.791366v122.014389h-29.928057v-177.266187h28.086331l78.273381 122.014388v-122.014388h29.928057v177.266187h-28.08633zm554.359712-54.791366h29.928058v177.266187h-29.928058zm235.280576 113.266187c0 41.438849-27.165468 63.539568-69.985612 63.539568h-66.762589v-177.266187h67.223021c42.359712 0 69.52518 22.100719 69.52518 63.539568zm-30.388489-49.726619c0-24.402878-15.194245-37.294964-39.136691-37.294964h-37.294964v124.776978h36.834532c24.402878 0 39.597123-12.892086 39.597123-37.294964zm-494.964029 46.503597c19.798561-7.366906 31.769784-24.402878 31.769784-52.94964 0-40.057554-23.482014-57.093525-58.935252-57.093525h-62.618705v177.266187h29.928058v-151.021583h31.769784c17.496403 0 28.546763 8.28777 28.546763 30.848921s-11.05036 31.309352-28.546763 31.309352h-15.654676l42.359712 89.323741h34.532374z" fill="#000"/><path d="m492.98701 111.359943h37.449829v221.818221h-37.449829zm-327.830047 221.818221h-37.449829v-221.818221h37.449829zm145.190109 26.502956h37.449829v84.69423h-37.449829zm-91.608045-95.064951h37.44983v137.123991h-37.44983zm182.639938 0h37.44983v137.123991h-37.44983zm457.464072-153.256226h37.449829v221.818221h-37.449829zm-145.190109-25.926805h-37.449829v-84.69422985h37.449829zm91.608045 94.488801h-37.44983v-136.5478403h37.44983zm-183.216089 0h-37.44983v-136.5478403h37.44983z" fill="url(#a)"/></g></svg>

<?xml version="1.0" encoding="UTF-8"?>
<svg width="1024px" height="1024px" viewBox="0 0 1024 1024" version="1.1" xmlns="http://www.w3.org/2000/svg" xmlns:xlink="http://www.w3.org/1999/xlink">
    <!-- Generator: Sketch 43.2 (39069) - http://www.bohemiancoding.com/sketch -->
    <title>icon</title>
    <desc>Created with Sketch.</desc>
    <defs>
        <linearGradient x1="17.7436282%" y1="105.82987%" x2="82.2136432%" y2="-5.86233766%" id="linearGradient-1">
            <stop stop-color="#E32929" offset="0%"></stop>
            <stop stop-color="#FF8D30" offset="100%"></stop>
        </linearGradient>
    </defs>
    <g id="Page-1" stroke="none" stroke-width="1" fill="none" fill-rule="evenodd">
        <g id="icon" fill-rule="nonzero">
            <g id="unraid-stacked-dark" transform="translate(0.000000, 155.500000)">
                <path d="M675.453237,668.000138 L621.582734,668.000138 L607.769784,709.438987 L577.841727,709.438987 L639.539568,532.1728 L676.374101,532.1728 L738.071942,709.438987 L705.381295,709.438987 L656.57554,563.942584 L629.870504,641.755534 L667.625899,641.755534 L675.453237,668.000138 L675.453237,668.000138 Z M136.748201,532.633232 L136.748201,649.582872 C136.748201,690.561289 110.043165,712.201577 68.1438849,712.201577 C26.705036,712.201577 0,690.561289 0,649.582872 L0,532.633232 L29.9280576,532.633232 L29.9280576,649.582872 C29.9280576,673.525318 44.6618705,685.956973 67.6834532,685.956973 C91.6258993,685.956973 106.359712,673.525318 106.359712,649.582872 L106.359712,532.633232 L136.748201,532.633232 L136.748201,532.633232 Z M234.359712,587.424598 L234.359712,709.438987 L204.431655,709.438987 L204.431655,532.1728 L232.517986,532.1728 L310.791367,654.187188 L310.791367,532.1728 L340.719424,532.1728 L340.719424,709.438987 L312.633094,709.438987 L234.359712,587.424598 L234.359712,587.424598 Z M788.719424,532.633232 L818.647482,532.633232 L818.647482,709.899419 L788.719424,709.899419 L788.719424,532.633232 L788.719424,532.633232 Z M1024,645.899419 C1024,687.338268 996.834532,709.438987 954.014388,709.438987 L887.251799,709.438987 L887.251799,532.1728 L954.47482,532.1728 C996.834532,532.1728 1024,554.273519 1024,595.712368 L1024,645.899419 L1024,645.899419 Z M993.611511,596.1728 C993.611511,571.769922 978.417266,558.877836 954.47482,558.877836 L917.179856,558.877836 L917.179856,683.654814 L954.014388,683.654814 C978.417266,683.654814 993.611511,670.762728 993.611511,646.35985 L993.611511,596.1728 L993.611511,596.1728 Z M498.647482,642.676397 C518.446043,635.309491 530.417266,618.273519 530.417266,589.726757 C530.417266,549.669203 506.935252,532.633232 471.482014,532.633232 L408.863309,532.633232 L408.863309,709.899419 L438.791367,709.899419 L438.791367,558.877836 L470.561151,558.877836 C488.057554,558.877836 499.107914,567.165606 499.107914,589.726757 C499.107914,612.287908 488.057554,621.036109 470.561151,621.036109 L454.906475,621.036109 L497.266187,710.35985 L531.798561,710.35985 L498.647482,642.676397 Z" id="Shape" fill="#000000"></path>
                <path d="M492.98701,111.359943 L530.436839,111.359943 L530.436839,333.178164 L492.98701,333.178164 L492.98701,111.359943 Z M165.156963,333.178164 L127.707134,333.178164 L127.707134,111.359943 L165.156963,111.359943 L165.156963,333.178164 Z M310.347072,359.68112 L347.796901,359.68112 L347.796901,444.37535 L310.347072,444.37535 L310.347072,359.68112 L310.347072,359.68112 Z M218.739027,264.616169 L256.188857,264.616169 L256.188857,401.74016 L218.739027,401.74016 L218.739027,264.616169 Z M401.378965,264.616169 L438.828795,264.616169 L438.828795,401.74016 L401.378965,401.74016 L401.378965,264.616169 Z M858.843037,111.359943 L896.292866,111.359943 L896.292866,333.178164 L858.843037,333.178164 L858.843037,111.359943 L858.843037,111.359943 Z M713.652928,85.433138 L676.203099,85.433138 L676.203099,0.738908152 L713.652928,0.738908152 L713.652928,85.433138 L713.652928,85.433138 Z M805.260973,179.921939 L767.811143,179.921939 L767.811143,43.3740987 L805.260973,43.3740987 L805.260973,179.921939 Z M622.044884,179.921939 L584.595054,179.921939 L584.595054,43.3740987 L622.044884,43.3740987 L622.044884,179.921939 Z" id="Shape" fill="url(#linearGradient-1)"></path>
            </g>
        </g>
    </g>
</svg>
